X: 4168
T: SLIGO REEL
T: Sligd Reel
%T: Jenny's Chickens
%R: reel
B: James Kerr "Merry Melodies" v.4 p.20 #168
Z: 2016 John Chambers <jc:trillian.mit.edu>
N: The book has "Sligo" in the index but "SLIGD" in the tune; the latter is clearly a typo.
M: 2/4
L: 1/16
K: D
(ufg) |\
ad'c'd' bd'c'd' | a2d2d2 (ed) |\
cdef gabc' |[1 d'2a2a2 :|[2 d'2d'2d'2 |:\
(c'd') |\
e'2a2a2 (bc') | d'2d2d2 (ed) |\
cdef gabc' |[1 d'2a2a2 :|[2 d'2d'2d'2 |]

%%sep 1 1 500
%%sep 1 1 500

